svg/cloud_print.svg

<svg xmlns="http://www.w3.org/2000/svg" viewBox="0 0 24 24"><path d="M12 2C9.11 2 6.6 3.64 5.35 6.04A5.994 5.994 0 0 0 0 12a6 6 0 0 0 6 6v4h12v-4h1a5 5 0 0 0 5-5c0-2.64-2.05-4.78-4.65-4.96A7.49 7.49 0 0 0 12 2M8 13h8v7H8zm1 1v1h6v-1zm0 2v1h6v-1zm0 2v1h6v-1z"/></svg>

<?xml version="1.0" encoding="UTF-8"?><!DOCTYPE svg PUBLIC "-//W3C//DTD SVG 1.1//EN" "http://www.w3.org/Graphics/SVG/1.1/DTD/svg11.dtd"><svg xmlns="http://www.w3.org/2000/svg" xmlns:xlink="http://www.w3.org/1999/xlink" version="1.1" id="mdi-cloud-print" width="24" height="24" viewBox="0 0 24 24"><path d="M12,2C9.11,2 6.6,3.64 5.35,6.04C2.34,6.36 0,8.91 0,12A6,6 0 0,0 6,18V22H18V18H19A5,5 0 0,0 24,13C24,10.36 21.95,8.22 19.35,8.04C18.67,4.59 15.64,2 12,2M8,13H16V20H8V13M9,14V15H15V14H9M9,16V17H15V16H9M9,18V19H15V18H9Z" /></svg>
